!!!OTL: 1650. Liebeslied vom Jahr 1640.
!!!ARE: Europa, Mitteleuropa, Deutschland
!!!SCT: E1650
!!!TXL: @@DE
!!!YEM: Copyright 1995, estate of Helmut Schaffrath.
**kern	**text
*ICvox	*
*M4/4	*
*met(c)	*
*k[b-e-]	*
*B-:	*
!LO:TX:a:i:t=Andante.	!
!LO:TX:a:t=Silcher 6, 2.	!
{4b-/	Du
4f	mein
=1	=1
2b-	ein-
2cc	-ʒig
=2	=2
4.dd}	Licht,
{8ee-	die
4ff	Lilg'
4ff	und
=3	=3
2ee-	Ros'
2dd	hat
=4	=4
2cc}	nicht,
{4cc	was
4cc	an
=5	=5
2cc	Farb'
2dd	und
=6	=6
2b-}	Schein
{4cc	dir
4b-	möcht
=7	=7
2a	ähn-
2g	-lich
=8	=8
4f;}	ſein;
{4f	nur
4b-/	daß
4a	dein
=9	=9
2b-	ſtol-
2cc	-ʒes
=10	=10
4dd}	Muth
{4ff	der
4ee-	Schönheit
4ee-	.
=11	=11
2dd	Un-
2cc	-recht
=12	=12
2b-}	thut.
==	==
!!!AGN: Staende -, Hofe -, Ritter - Lied, Liebe
!!!ONB: ESAC (Essen Associative Code) Database: ERK3
!!!AMT: simple quadruple
!!!AIN: vox
!!!EED: Helmut Schaffrath
!!!EEV: 1.0
!!!GTL: Staendelieder (Berufslieder). 9. Hofelieder.
!!!URL-scan: https://rosdok.uni-rostock.de/mcrviewer/recordIdentifier/rosdok_ppn745177999/iview2/phys_0464.iview2?x=-449.8344612962892&y=206.19288160046563&scale=0.47549036216460333&rotation=0&layout=singlePageLayout
!!!ENC: Anna Maria Matuszewska
!!!EEV: 2025/08/01
*-	*-
